frontend/src/icons/Product_Icon.svg

<svg width="52.000000" height="52.000000" viewBox="0 0 52 52" fill="none" xmlns="http://www.w3.org/2000/svg" xmlns:xlink="http://www.w3.org/1999/xlink">
	<desc>
			Created with Pixso.
	</desc>
	<defs/>
	<circle id="Ellipse 57" cx="12.133789" cy="38.133301" r="3.466667" fill="#000000" fill-opacity="1.000000"/>
	<circle id="Ellipse 58" cx="26.000488" cy="38.133301" r="3.466667" fill="#000000" fill-opacity="1.000000"/>
	<circle id="Ellipse 59" cx="39.866211" cy="38.133301" r="3.466667" fill="#000000" fill-opacity="1.000000"/>
	<path id="Rectangle 18143" d="M22.53 43.33L29.46 43.33C31.38 43.33 32.93 44.88 32.93 46.8L19.06 46.8C19.06 44.88 20.61 43.33 22.53 43.33Z" fill="#000000" fill-opacity="1.000000" fill-rule="evenodd"/>
	<path id="Rectangle 18144" d="M8.66 43.33L15.59 43.33L15.59 46.8L5.19 46.8C5.19 44.88 6.75 43.33 8.66 43.33Z" fill="#000000" fill-opacity="1.000000" fill-rule="evenodd"/>
	<path id="Rectangle 18145" d="M36.39 43.33L43.33 43.33C45.24 43.33 46.79 44.88 46.79 46.8L36.39 46.8L36.39 43.33Z" fill="#000000" fill-opacity="1.000000" fill-rule="evenodd"/>
	<mask id="mask_312_11969" fill="white">
		<path id="Union" d="M12.667 6.06665L39.3335 6.06665C41.543 6.06665 43.3335 7.85742 43.3335 10.0667L43.3335 22.8667C43.3335 25.0757 41.543 26.8667 39.3335 26.8667L28.252 26.8667L26.0005 29.4668L23.7485 26.8667L12.667 26.8667C10.458 26.8667 8.66699 25.0757 8.66699 22.8667L8.66699 10.0667C8.66699 7.85742 10.458 6.06665 12.667 6.06665Z" clip-rule="evenodd" fill="" fill-opacity="1.000000" fill-rule="evenodd"/>
	</mask>
	<path id="Union" d="M28.252 26.8667L39.3335 26.8667C41.543 26.8667 43.3335 25.0757 43.3335 22.8667L43.3335 10.0667C43.3335 7.85742 41.543 6.06665 39.3335 6.06665L12.667 6.06665C10.458 6.06665 8.66699 7.85742 8.66699 10.0667L8.66699 22.8667C8.66699 25.0757 10.458 26.8667 12.667 26.8667L23.7485 26.8667L24.6774 27.9391L26.0005 29.4668L27.3232 27.9393L28.252 26.8667ZM26.0002 26.4117L27.3384 24.8667L39.3335 24.8667C40.667 24.8667 41.3335 24.2 41.3335 22.8667L41.3335 10.0667C41.3335 8.7334 40.667 8.06665 39.3335 8.06665L12.667 8.06665C11.3335 8.06665 10.667 8.7334 10.667 10.0667L10.667 22.8667C10.667 24.2 11.3335 24.8667 12.667 24.8667L24.6621 24.8667L26.0002 26.4117Z" clip-rule="evenodd" fill="#000000" fill-opacity="1.000000" fill-rule="evenodd"/>
	<path id="Vector 71" d="M19.93 13L16.46 16.46L19.93 19.93" stroke="#000000" stroke-opacity="1.000000" stroke-width="2.000000"/>
	<path id="Vector 72" d="M32.06 19.93L35.53 16.46L32.06 13" stroke="#000000" stroke-opacity="1.000000" stroke-width="2.000000"/>
	<path id="Vector 73" d="M25.13 13L27.29 13" stroke="#000000" stroke-opacity="1.000000" stroke-width="2.000000"/>
</svg>

<svg width="52" height="52" fill="none" xmlns="http://www.w3.org/2000/svg"><circle cx="12.134" cy="38.133" r="3.467" fill="#000"/><circle cx="26" cy="38.133" r="3.467" fill="#000"/><circle cx="39.866" cy="38.133" r="3.467" fill="#000"/><path d="M22.53 43.33h6.93c1.92 0 3.47 1.55 3.47 3.47H19.06c0-1.92 1.55-3.47 3.47-3.47ZM8.66 43.33h6.93v3.47H5.19c0-1.92 1.56-3.47 3.47-3.47ZM36.39 43.33h6.94c1.91 0 3.46 1.55 3.46 3.47h-10.4v-3.47Z" fill="#000" fill-rule="evenodd"/><path d="M28.252 26.867h11.082a4 4 0 0 0 4-4v-12.8a4 4 0 0 0-4-4H12.666a4 4 0 0 0-4 4v12.8a4 4 0 0 0 4 4h11.082l.928 1.072L26 29.467l1.323-1.528.929-1.072ZM26 26.412l1.338-1.545h11.995c1.334 0 2-.667 2-2v-12.8c0-1.334-.666-2-2-2H12.668c-1.333 0-2 .666-2 2v12.8c0 1.333.667 2 2 2h11.995L26 26.412Z" clip-rule="evenodd" fill="#000" fill-rule="evenodd"/><path d="m19.93 13-3.47 3.46 3.47 3.47M32.06 19.93l3.47-3.47L32.06 13M25.13 13h2.16" stroke="#000" stroke-width="2"/></svg>
